_images/SocialNetwork/youtube.svg

<svg width="31" height="31" viewBox="0 0 31 31" fill="none" xmlns="http://www.w3.org/2000/svg">
<path d="M14.299 0.773519C9.33761 1.10542 4.81187 3.93002 2.32254 8.25162C0.538521 11.339 -0.0872689 15.0175 0.576552 18.5059C1.3925 22.8206 4.04087 26.551 7.83018 28.736C10.9176 30.52 14.5963 31.1457 18.0848 30.4819C20.4774 30.029 22.6832 29.0299 24.5848 27.5329C27.4509 25.2787 29.3836 22.0946 30.0613 18.5059C30.4036 16.715 30.4036 14.7651 30.0613 12.9743C29.2453 8.65958 26.597 4.92917 22.8077 2.74417C20.2423 1.26445 17.2689 0.576454 14.299 0.773519ZM11.3049 6.37777C11.5227 7.18332 11.7094 7.86094 11.7198 7.88514C11.7336 7.90589 11.9065 7.30086 12.1035 6.5368C12.3006 5.76929 12.4735 5.09166 12.4908 5.02943L12.5219 4.9188H13.1131H13.7009L13.6767 5.01214C13.6663 5.06746 13.3517 6.10464 12.9817 7.32161L12.311 9.53772V11.1177V12.6977H11.7232H11.1355V11.097V9.49969L10.9972 8.9569C10.8589 8.41411 10.482 7.24555 9.9634 5.75546C9.80782 5.31293 9.68335 4.943 9.68335 4.93263C9.68335 4.92571 9.95994 4.9188 10.2988 4.9188H10.9142L11.3049 6.37777ZM15.8272 6.92748C16.0899 7.01737 16.3043 7.1764 16.4806 7.41495C16.7952 7.84366 16.8575 8.35188 16.8298 10.1566C16.8091 11.4254 16.7814 11.6501 16.612 11.9993C16.4115 12.4107 15.9689 12.715 15.5022 12.7599C14.9593 12.8152 14.5617 12.6977 14.2298 12.3831C13.9947 12.1583 13.8495 11.8783 13.7769 11.4945C13.7009 11.09 13.7216 8.21013 13.8046 7.94392C13.9844 7.35618 14.4338 6.93785 14.9835 6.85487C15.2256 6.81684 15.6024 6.84796 15.8272 6.92748ZM18.7417 9.22311C18.7417 11.173 18.7487 11.5775 18.7901 11.6778C18.8904 11.9129 19.1566 11.8679 19.454 11.5671L19.6407 11.377L19.6476 9.14014L19.658 6.90673L20.1869 6.89636L20.7125 6.88599V9.79356V12.6977H20.1766H19.6407V12.3969V12.0996L19.4436 12.2897C19.0737 12.6424 18.804 12.7703 18.4444 12.7703C18.071 12.7703 17.867 12.6251 17.7495 12.2724C17.6976 12.1099 17.6907 11.8472 17.6769 9.53772C17.67 8.13407 17.6734 6.96205 17.6838 6.93785C17.6976 6.89982 17.8117 6.88945 18.2231 6.88945H18.7417V9.22311ZM19.3641 13.804C20.7816 13.8628 21.8396 13.9423 22.1819 14.0149C22.2787 14.0356 22.4861 14.1152 22.6486 14.1912C22.8872 14.3053 22.9944 14.3848 23.2225 14.6165C23.7342 15.1316 23.8933 15.6398 24.035 17.2267C24.1353 18.3884 24.1284 21.2544 24.0143 22.4126C23.8725 23.9166 23.7308 24.3453 23.2053 24.8673C22.7247 25.3444 22.4446 25.4516 21.4385 25.538C19.7167 25.6901 17.6492 25.7455 14.5756 25.7213C11.0525 25.6901 9.11288 25.576 8.56315 25.3721C7.99268 25.1543 7.50864 24.6772 7.3012 24.1205C7.03844 23.4256 6.91397 22.0081 6.91397 19.7505C6.91397 17.8629 6.98312 16.8257 7.1629 15.8887C7.24588 15.4531 7.32194 15.2561 7.52939 14.938C7.78869 14.5404 8.15172 14.2569 8.60118 14.091C9.04373 13.9319 10.8243 13.804 13.3482 13.7556C14.375 13.7349 18.5343 13.7694 19.3641 13.804Z" fill="#BB0000"/>
<path d="M15.0216 7.8541C14.9593 7.89213 14.8867 7.98202 14.8487 8.06845C14.7865 8.2102 14.783 8.33466 14.7726 9.70029C14.7623 11.3598 14.7761 11.5223 14.9732 11.7021C15.2048 11.9164 15.5125 11.8438 15.6647 11.5396L15.7511 11.3667V9.79364V8.22057L15.6681 8.05462C15.6232 7.95782 15.5471 7.86793 15.4883 7.84027C15.3535 7.76767 15.1495 7.77459 15.0216 7.8541Z" fill="#BB0000"/>
<path d="M8.19666 16.3107V16.8465H8.8017H9.40675V20.1482V23.45H9.9945H10.5823V20.1482V16.8465H11.2046H11.8269V16.3107V15.7748H10.0118H8.19666V16.3107Z" fill="#BB0000"/>
<path d="M15.8721 19.6123V23.4499H16.3734H16.8747V23.1906C16.8747 23.0489 16.8851 22.9313 16.8955 22.9313C16.9093 22.9313 17.0234 23.0316 17.1513 23.1526C17.4314 23.4153 17.6665 23.519 17.9915 23.519C18.4686 23.5156 18.7487 23.2321 18.842 22.6547C18.8904 22.3539 18.8904 18.8413 18.842 18.544C18.7383 17.8975 18.3476 17.5691 17.7944 17.6728C17.5316 17.7212 17.3622 17.8145 17.0995 18.06L16.8747 18.2709V17.0228V15.7747H16.3734H15.8721V19.6123ZM17.6423 18.6546C17.6769 18.6788 17.7426 18.7653 17.784 18.8517C17.8601 19.0038 17.8601 19.0384 17.8705 20.4836C17.8843 22.1569 17.867 22.309 17.663 22.4957C17.5662 22.5821 17.5386 22.5925 17.3692 22.5787C17.2378 22.5683 17.141 22.5337 17.0372 22.4611L16.892 22.3574L16.8817 20.608L16.8747 18.8552L16.9958 18.7584C17.217 18.582 17.459 18.544 17.6423 18.6546Z" fill="#BB0000"/>
<path d="M20.9614 17.6797C20.5776 17.7454 20.2007 17.9978 19.9898 18.3262C19.9311 18.4196 19.8481 18.6166 19.8066 18.7687C19.734 19.0315 19.7305 19.1006 19.7271 20.5631C19.7271 21.6348 19.7409 22.1361 19.7686 22.2606C19.855 22.6201 19.9553 22.8276 20.1454 23.035C20.4704 23.3842 20.792 23.519 21.2967 23.519C21.805 23.519 22.1058 23.4015 22.3927 23.0973C22.7143 22.7584 22.8215 22.4438 22.8215 21.8526V21.4792H22.3063H21.7946L21.7704 21.8457C21.7324 22.4162 21.6252 22.5856 21.2933 22.5856C21.0686 22.5856 20.9372 22.5061 20.8404 22.309C20.7712 22.1672 20.7643 22.0946 20.7539 21.4689L20.7401 20.7878H21.7808H22.8215V20.0237C22.8215 18.9485 22.7523 18.582 22.4757 18.2087C22.1646 17.7938 21.5422 17.576 20.9614 17.6797ZM21.5422 18.6754C21.7289 18.8102 21.7669 18.9347 21.7773 19.4464L21.7912 19.9235H21.2691H20.747V19.5605C20.747 19.1214 20.7954 18.8828 20.9095 18.748C21.0582 18.5717 21.3521 18.5371 21.5422 18.6754Z" fill="#BB0000"/>
<path d="M11.9652 20.1206C11.9652 21.469 11.9825 22.6479 11.9998 22.7931C12.069 23.3324 12.2833 23.533 12.7604 23.5122C13.0889 23.4984 13.3344 23.3808 13.6594 23.0801C13.7873 22.9591 13.9048 22.8623 13.9152 22.8623C13.9256 22.8623 13.936 22.9936 13.936 23.1561V23.45H14.4373H14.9386V20.5805V17.7109H14.4373H13.936V19.9097V22.1051L13.7562 22.2987C13.6559 22.4024 13.5314 22.5096 13.4796 22.5373C13.3793 22.5891 13.1822 22.5995 13.1166 22.558C13.0094 22.4923 13.0025 22.316 13.0025 20.0238V17.7109H12.4839H11.9652V20.1206Z" fill="#BB0000"/>
</svg>

<svg xmlns="http://www.w3.org/2000/svg" width="31" height="31" fill="none"><path fill="#B00" d="M14.299.774C9.338 1.105 4.812 3.93 2.323 8.252A15.005 15.005 0 0 0 .577 18.506a15.02 15.02 0 0 0 7.253 10.23 15.006 15.006 0 0 0 10.255 1.746 14.936 14.936 0 0 0 6.5-2.95 14.978 14.978 0 0 0 5.476-9.026c.343-1.791.343-3.74 0-5.532a15.02 15.02 0 0 0-7.253-10.23 15.065 15.065 0 0 0-8.509-1.97Zm-2.994 5.604c.218.805.404 1.483.415 1.507.014.02.186-.584.383-1.348.198-.768.37-1.445.388-1.508l.03-.11h1.18l-.024.093c-.01.055-.325 1.093-.695 2.31l-.671 2.216v3.16h-1.176V9.5l-.138-.543c-.138-.543-.515-1.711-1.034-3.202a26.4 26.4 0 0 1-.28-.822c0-.007.277-.014.616-.014h.615l.39 1.459Zm4.522.55c.263.09.477.248.654.487.314.429.377.937.349 2.742-.02 1.268-.049 1.493-.218 1.842-.2.412-.643.716-1.11.76-.543.056-.94-.061-1.272-.376-.235-.225-.38-.505-.453-.888-.076-.405-.055-3.285.028-3.551.18-.588.629-1.006 1.178-1.09.243-.037.62-.006.844.073Zm2.915 2.295c0 1.95.007 2.354.048 2.455.1.235.367.19.664-.11l.187-.191.007-2.237.01-2.233.529-.01.525-.011V12.698H19.641V12.1l-.197.19c-.37.352-.64.48-1 .48-.373 0-.577-.145-.694-.498-.052-.162-.06-.425-.073-2.734-.007-1.404-.004-2.576.007-2.6.014-.038.128-.049.54-.049h.518v2.334Zm.622 4.581c1.418.059 2.476.138 2.818.21.097.022.304.101.467.177.238.114.345.194.573.425.512.516.671 1.024.813 2.61.1 1.162.093 4.028-.02 5.187-.143 1.504-.284 1.932-.81 2.454-.48.477-.76.585-1.766.671-1.722.152-3.79.207-6.863.183-3.524-.03-5.463-.145-6.013-.349a2.215 2.215 0 0 1-1.262-1.252c-.263-.694-.387-2.112-.387-4.37 0-1.887.07-2.924.249-3.861.083-.436.159-.633.366-.951.26-.398.623-.681 1.072-.847.443-.16 2.223-.287 4.747-.335 1.027-.021 5.186.013 6.016.048Z"/><path fill="#B00" d="M15.022 7.854a.52.52 0 0 0-.173.214c-.063.142-.066.267-.076 1.632-.01 1.66.003 1.822.2 2.002.232.214.54.142.692-.162l.086-.173V8.22l-.083-.166a.478.478 0 0 0-.18-.215.506.506 0 0 0-.466.014ZM8.197 16.31v.537h1.21v6.603H10.582v-6.604h1.245V15.775h-3.63v.536ZM15.872 19.612v3.838H16.875v-.26c0-.141.01-.259.02-.259.014 0 .128.1.256.222.28.262.515.366.84.366.478-.003.758-.287.851-.864.048-.301.048-3.814 0-4.111-.104-.646-.494-.975-1.048-.871-.262.048-.432.142-.695.387l-.224.21v-2.495h-1.002v3.837Zm1.77-.957c.035.024.1.11.142.197.076.152.076.186.087 1.632.013 1.673-.004 1.825-.208 2.012-.097.086-.124.097-.294.083a.622.622 0 0 1-.332-.118l-.145-.104-.01-1.749-.007-1.753.12-.097c.222-.176.464-.214.647-.103ZM20.961 17.68c-.383.065-.76.318-.971.646a1.99 1.99 0 0 0-.183.443c-.073.263-.076.332-.08 1.794 0 1.072.014 1.573.042 1.698.086.36.186.567.376.774.325.35.647.484 1.152.484.508 0 .809-.117 1.096-.422.321-.339.428-.653.428-1.244v-.374h-1.026l-.025.367c-.038.57-.145.74-.477.74-.224 0-.356-.08-.453-.277-.069-.142-.076-.214-.086-.84l-.014-.681h2.081v-.764c0-1.076-.069-1.442-.345-1.815-.311-.415-.934-.633-1.515-.53Zm.581.995c.187.135.225.26.235.771l.014.477h-1.044v-.362c0-.44.048-.678.163-.813a.486.486 0 0 1 .632-.073ZM11.965 20.12c0 1.349.018 2.528.035 2.673.069.54.283.74.76.72.329-.015.574-.132.9-.433a2.03 2.03 0 0 1 .255-.218c.01 0 .021.132.021.294v.294H14.939v-5.74H13.936v4.395l-.18.194c-.1.103-.225.21-.276.238-.1.052-.298.063-.363.021-.108-.066-.115-.242-.115-2.534V17.71h-1.037v2.41Z"/></svg>
